X:1
T:Sincerity
T:D Major                    Merit Woodruff, 1798
T:Transcribed from Social Harmony, 1798.
T:Isaac Watts, 1719 (Psalm 89, Part 1)                   86. 86. (C. M.)
%%score [ 1 2 3 4 ]
L:1/8
Q:1/4=90
M:3/2
K:D
V:1 treble nm="Tr." snm="Tr."
V:2 treble nm="C." snm="C."
V:3 treble-8 nm="T." snm="T."
V:4 bass nm="B." snm="B."
V:1
"_1. My  ne     –     ver  –  cea     –    sing   song  shall show  The  mer–cies   of             the Lord;  And make succeeding a     –    ges  know  How  faith–ful     is    his   word.\n2. The  sa     –     cred    truths       his      lips   pronounce  Shall  firm  as  heaven      en– dure;  And if he speak  a     pro   –   mise once,  Th'e – ter – nal   grace  is    sure." F4 | %1
 A8 A4 | (A3 G F4) A4 | (d3 c B4) c4 | d8 (c3 B) | A8 d4 | (B3 A G4) (G2 F2) | E8 D4 | A8 (F2 A2) | %9
 d8 A4 | (d3 c B4) A4 | F8 (D2 F2) | (A4 d4) (c2 B2) | A8 A4 | A12 |] %15
V:2
"_3. How long       the       race          of      Da  –  vid held  The  promised   Je    –   wish  throne!  But there's a nobler  cove  –  nant sealed   To   Da  –  vid's  greater   Son." D4 | %1
 (F3 G F4) (F2 E2) | (D3 E D4) E4 | D8 E4 | F8 A4 | F8 D4 | E8 E4 | C8 F4 | F8 F4 | D8 D4 | F8 E4 | %11
 D8 F4 | (F4 A4) (A2 G2) | (F4 D4) E4 | F12 |] %15
V:3
"_4. His  seed         for      ev      –      er       shall   pos–sess   A  throne  a  –  bove        the  skies;  The meanest subject  of           his   grace  Shall  to     that   glo  –  ry  rise.\n5. Lord  God       of      hosts,        thy    wondrous  ways  Are  sung  by    saints       a  – bove;  And saints on earth their ho – nors  raise  To     thy    un–chan–ging   love." A4 | %1
 (d3 e d4) (A2 G2) | (F3 G F4) (F2 E2) | (D4 F4) A4 | A8 A4 | d8 (f2 d2) | e8 (B2 G2) | A8 A4 | %8
 d8 (f2 d2) | B8 (F2 G2) | (A4 d4) (c3 B) | A8 (d2 A2) | d8 (A2 G2) | F8 E4 | D12 |] %15
V:4
 D,4 | D,8 F,4 | D,8 A,,4 | B,,8 A,,4 | D,8 F,4 | D,8 B,,4 | E,8 E,4 | A,,8 D,4 | D,8 (D,2 F,2) | %9
 G,8 (F,2 E,2) | D,8 A,,4 | D,8 D,4 | D,8 (F,2 G,2) | A,8 A,,4 | D,12 |] %15

